img/part6/7/1_梁山LOGO.svg

<svg width="188" height="53" viewBox="0 0 188 53" fill="none" xmlns="http://www.w3.org/2000/svg"><g clip-path="url(#clip0_30_203)"><path d="M36.2418 31.9153L55.3867 26.6978C55.3867 26.6978 52.2028 24.676 48.358 25.2722C47.4364 25.4167 44.8856 25.9757 41.5482 26.7397C42.5722 24.3964 43.5636 21.2286 43.5636 21.2286C43.5636 21.2286 47.604 8.70188 48.3161 5.24526C49.0283 1.7933 40.3146 3.22812 37.0656 3.6241C33.8166 4.02007 27.961 6.86643 27.9563 6.86643C26.7647 6.34467 25.615 5.80428 25.2566 5.45024C24.4653 4.65829 21.6911 0.693886 17.176 4.34151H17.5716C17.5716 4.34151 19.7919 8.93947 22.0076 9.25625C24.2279 9.57303 26.2853 9.41464 25.0192 11.8743C23.7531 14.334 21.7609 19.9615 21.4909 18.3776C21.2163 16.7937 17.4925 10.0529 16.4638 10.8448C15.4351 11.6368 15.5142 16.5562 16.0681 18.0609C16.6221 19.5656 14.8021 23.2132 14.8812 24.485C14.9603 25.7521 14.0899 30.0333 16.9432 29.0037C19.7966 27.9742 21.4583 25.0393 24.2325 20.5997C27.0068 16.1602 26.3737 13.8589 28.352 12.1958C29.646 11.1103 30.5956 10.0249 30.9959 9.26557C31.1262 9.31215 31.2007 9.3401 31.2007 9.3401C31.2007 9.3401 33.6584 8.86493 33.5792 9.73608C33.5001 10.6072 31.9966 12.6709 29.7763 13.4629C27.556 14.2548 29.3015 15.7642 29.9346 15.9925C30.5676 16.2254 30.5676 17.4273 30.5676 17.4273C30.5676 17.4273 28.2682 19.0904 26.923 19.8078C25.5778 20.5206 27.6352 24.0098 28.4265 26.3111C28.7569 27.2661 29.497 27.2614 30.2465 26.9307V29.3997C21.328 31.524 12.5399 33.6669 12.5399 33.6669L12.1814 33.0706C12.1814 33.0706 10.0403 29.6233 6.95418 32.7725C3.86344 35.9263 1.3685 40.6826 5.70671 39.6717C9.29085 38.8379 24.9261 34.8735 30.2465 33.5225V41.2184C30.2465 41.2184 30.0091 43.9529 28.2263 44.1346C26.4435 44.3116 24.2465 43.5989 24.065 43.5383C24.0277 43.5243 23.9021 43.5896 23.7298 43.7014C23.9672 43.3473 24.1441 42.9607 24.2419 42.5321C24.7771 40.1469 25.8152 37.1096 22.999 38.3068C22.999 38.3068 20.4994 39.6531 18.7772 39.8115C17.0549 39.9699 13.9037 39.9093 14.3785 42.2293C14.8533 44.5492 16.7105 47.2232 18.6655 46.6875C19.7873 46.38 21.2814 45.8396 22.4544 44.9825C22.3381 45.2526 22.3846 45.4949 22.757 45.616C24.0045 46.0306 27.975 47.9965 29.376 49.8366C30.7771 51.6768 33.0952 53.5215 34.3426 52.8693C35.5901 52.2171 37.0144 52.3942 36.7212 47.4561C36.535 44.3536 36.3488 36.9698 36.2324 31.92L36.2418 31.9153ZM38.988 10.938C39.4628 10.2858 40.0586 6.41921 40.0586 6.41921C40.1378 5.91609 42.1393 6.12106 42.6746 6.41921C43.2099 6.71735 42.5536 10.0482 41.9624 12.1865C41.3666 14.3294 39.9423 14.1477 38.7553 13.8496C37.5684 13.5514 38.5179 11.5902 38.9927 10.9333L38.988 10.938ZM36.7491 18.1354C37.4613 17.581 40.4729 18.1354 40.4729 18.1354C40.4729 18.1354 40.7103 21.783 37.3822 20.7535C36.8422 20.5858 36.5909 20.1199 36.5909 20.1199C36.5909 20.1199 36.0369 18.6944 36.7491 18.1354ZM36.1347 26.7583C36.1347 26.7583 35.0641 25.0906 32.5971 24.9135C32.9602 24.1309 33.7049 22.547 33.9004 22.179C34.0261 21.9367 34.7243 21.8296 35.227 21.415C34.9477 22.3327 35.4039 23.6883 35.4039 23.6883C35.4039 23.6883 36.9027 25.8825 38.2107 27.513C37.5404 27.6667 36.8562 27.8298 36.158 27.9928C36.144 27.2195 36.1347 26.7583 36.1347 26.7583V26.7583Z" fill="white"></path><path d="M51.109 37.7618C47.0687 35.6794 43.2658 32.5302 39.0486 36.2151C39.0486 36.2151 43.5637 42.6765 47.1897 42.3877C50.8157 42.1035 55.154 39.8395 51.1137 37.7618H51.109Z" fill="white"></path><path d="M144.744 23.1343C144.744 23.1343 147.834 31.9855 147.834 34.515C147.834 37.0446 146.885 40.9718 146.885 40.9718C146.885 40.9718 148.546 46.3244 150.213 46.0868C151.879 45.8492 162.93 43.4687 162.93 43.4687C162.93 43.4687 173.626 41.3258 175.409 41.3258C177.192 41.3258 179.091 41.9221 177.313 43.3476C175.535 44.7731 176.363 45.1318 178.025 46.6784C179.687 48.2251 181.116 48.5838 182.419 48.3415C183.722 48.0993 186.459 46.0822 186.818 45.607C187.176 45.1318 188.005 24.8859 188.005 24.8859C188.005 24.8859 183.727 18.0099 180.278 18.9602C176.829 19.9106 179.328 28.1189 179.328 28.1189L179.924 33.6392L170.414 34.5057V15.9881C170.414 15.9881 174.929 8.14315 170.889 5.4086C166.849 2.67404 159.718 -1.19719 160.314 2.81846C160.909 6.8341 162.455 35.0228 162.455 35.0228C162.455 35.0228 153.541 38.2325 153.662 36.6859C153.783 35.1393 155.207 27.6484 153.541 26.1017C151.875 24.5551 151.4 23.0085 144.748 23.1296L144.744 23.1343Z" fill="white"></path><path fill-rule="evenodd" clip-rule="evenodd" d="M99.0294 44.1393C99.7416 43.3287 100.421 42.4855 101.175 41.7122C103.363 39.4575 105.411 37.1096 106.444 34.0676C107.119 32.083 107.799 30.0985 108.381 28.086C108.8 26.6465 108.404 25.2676 107.613 24.0424C107.385 23.693 106.742 23.2365 106.51 23.339C105.932 23.5905 105.216 24.0424 105.025 24.5828C104.429 26.2692 103.996 28.0208 103.6 29.7724C103.102 31.9759 102.697 34.198 102.018 36.4155C101.99 36.1359 101.962 35.8518 101.915 35.4279C100.696 36.4714 101.073 38.4885 99.183 39.2758C100.314 35.4744 102.12 32.1389 102.339 28.3609C99.5927 34.5474 98.3871 41.4047 94.3747 47.0229C94.263 46.981 94.1513 46.9391 94.0349 46.8971C94.0954 46.6269 94.1326 46.3428 94.2211 46.0819C96.5485 39.518 98.8665 32.9449 101.231 26.3903C101.841 24.6946 102.102 22.8219 103.763 21.6107C104.285 21.2333 104.443 20.3575 104.778 19.6914C103.652 18.5034 102.507 17.3668 101.445 16.1555C100.435 15.0096 99.5135 13.789 98.4197 12.4427C98.3824 13.6353 98.2288 14.8558 98.8991 15.904C99.7323 17.2037 100.742 18.387 101.864 19.8637C100.724 20.1432 99.7323 20.4367 98.7222 20.5811C98.5779 20.5998 98.0659 19.7333 98.173 19.5609C98.7408 18.6572 98.401 18.1587 97.7401 17.4786C97.2886 17.0127 97.2094 16.1788 97.0093 15.494C96.8743 15.0282 96.8231 14.539 96.7346 14.0592C96.609 14.0499 96.4833 14.0406 96.3576 14.0266C95.5384 17.1851 94.8541 20.3855 93.858 23.4881C92.8526 26.6046 91.5353 29.614 90.1947 32.698C90.3065 31.8641 90.2972 30.9976 90.5439 30.2103C91.3817 27.513 92.3592 24.8623 93.1738 22.1604C93.6206 20.679 93.8347 19.1277 94.1559 17.609C93.9651 17.5298 93.7696 17.446 93.5787 17.3668C93.3367 17.7674 92.9922 18.1354 92.8666 18.5687C91.8798 21.9787 90.9907 25.4213 89.9667 28.8174C88.6308 33.243 87.3042 37.7245 84.2693 41.3442C82.9334 42.9327 81.1925 44.1812 79.6378 45.5881C79.5075 45.4716 79.3818 45.3505 79.2515 45.234C79.6657 44.689 80.0148 44.0694 80.5129 43.6129C84.6882 39.7743 87.1319 34.9713 88.4818 29.5348C88.8542 28.0394 88.6401 26.6559 87.8162 25.3654C87.0342 24.1403 86.1079 24.0797 85.405 25.3561C84.879 26.3065 84.5532 27.4012 84.3019 28.4727C83.5711 31.5799 82.9241 34.7011 82.0909 37.827C82.0397 37.4962 81.9885 37.1608 81.9186 36.695C80.848 37.7012 81.2065 39.6392 79.2934 40.1889C80.5548 36.6484 82.0164 33.3595 82.4353 29.7584C79.6192 35.889 78.4415 42.7324 74.4105 48.3087C74.2988 48.2621 74.1918 48.2155 74.0801 48.1689C74.6479 46.8832 75.3136 45.6254 75.7697 44.2977C77.7992 38.3487 79.7542 32.3719 81.7604 26.4136C82.1886 25.1418 82.4912 23.8281 83.7573 22.957C84.4787 22.4585 84.7347 21.6153 83.7898 20.8141C82.6541 19.8498 81.5928 18.7969 80.5827 17.7022C80.1405 17.227 79.9031 16.5608 79.5913 15.9692C79.3678 15.5499 79.177 15.112 78.7907 14.744C78.6324 16.2068 78.3997 17.5764 79.6471 18.8156C80.5176 19.6774 81.0435 20.8886 81.8628 22.1511C80.8573 22.4026 79.8333 22.8079 78.786 22.8731C77.9621 22.9244 78.004 22.1511 78.3717 21.6666C78.8977 20.9725 78.6138 20.5951 78.1436 20.0314C77.7061 19.505 77.4734 18.783 77.2499 18.1168C77.0591 17.5391 77.0079 16.9102 76.8962 16.3093C76.7845 16.3093 76.6681 16.3093 76.5564 16.3093C75.7278 19.4957 75.0157 22.7194 74.0289 25.8546C73.056 28.9478 71.7992 31.9526 70.4726 34.9806C70.7147 33.6809 70.8543 32.3486 71.2221 31.0815C72.1158 28.0022 73.1305 24.9555 74.0568 21.8855C74.2476 21.2566 74.2383 20.5672 74.3221 19.9057C74.1778 19.8358 74.0289 19.7706 73.8846 19.7007C73.5867 20.1712 73.1631 20.6044 73.0188 21.1215C72.1251 24.2893 71.357 27.4944 70.4214 30.6482C69.16 34.9154 67.9498 39.2525 65.278 42.8955C63.9514 44.703 62.1546 46.1611 60.5674 47.7729C60.4091 47.6378 60.2462 47.5074 60.0879 47.3723C60.465 46.8599 60.828 46.3335 61.219 45.835C62.8156 43.7806 64.7334 41.8985 65.9343 39.6345C67.2795 37.0956 68.0987 34.2492 68.904 31.4635C69.1833 30.4898 68.8854 29.26 68.5689 28.2351C68.392 27.6574 67.4517 26.7723 67.1864 26.8748C66.4882 27.145 65.6969 27.7786 65.4362 28.4587C64.8916 29.8842 64.631 31.4215 64.3144 32.9309C63.8303 35.2275 63.4021 37.5335 62.6946 39.8162C62.6806 39.5739 62.6713 39.3317 62.662 39.0895C62.5922 39.0568 62.5224 39.0196 62.4525 38.987C61.8893 40.091 61.3261 41.1998 60.7675 42.3038C60.6093 42.2386 60.4464 42.1687 60.2881 42.1035C61.3214 38.7401 62.3548 35.3719 63.3928 32.0085C63.2299 31.9573 63.0716 31.906 62.9134 31.8548C60.2788 37.9248 59.292 44.6704 55.4053 50.2606C55.5123 49.8879 55.6147 49.5106 55.7311 49.1379C58.0166 42.0523 60.2834 34.962 62.6294 27.895C62.932 26.982 63.7047 26.2273 64.1888 25.3608C64.7706 24.3219 65.2873 23.2505 65.8086 22.1837C66.0925 21.606 66.2973 20.9958 66.5859 20.4228C66.9769 19.6588 67.5029 19.6029 67.866 20.3995C68.378 21.5222 68.7457 22.7101 69.2345 23.8421C69.5231 24.5129 69.9234 25.1325 70.4261 26.0502C70.9567 24.2101 71.2081 22.6728 71.8272 21.3079C73.2329 18.2053 74.8202 15.1819 76.333 12.1259C76.6541 11.4784 76.9334 10.7982 77.3198 10.1926C78.0226 9.08391 78.5626 9.00937 79.3911 10.0529C80.2103 11.0824 80.9179 12.2144 81.5695 13.3604C82.6262 15.2099 83.5943 17.1105 84.6184 18.974C84.7487 19.2115 85.0233 19.3746 85.3445 19.6774C85.5959 19.1556 85.7495 18.7131 86.0008 18.3357C86.1963 18.0422 86.5129 17.6183 86.7596 17.623C87.0295 17.6323 87.3879 18.0283 87.5322 18.3357C88.1979 19.7659 88.7937 21.2287 89.4453 22.6635C89.5757 22.9477 89.8177 23.1806 90.111 23.5812C90.5625 22.0905 90.8604 20.7582 91.3677 19.5097C92.0566 17.8186 92.8759 16.1835 93.6858 14.5437C94.6866 12.5126 95.7478 10.5094 96.7626 8.48296C97.6796 6.65216 98.4569 6.47048 99.5694 8.14755C100.854 10.0995 101.827 12.2517 102.986 14.2921C103.652 15.4661 104.41 16.5888 105.216 17.8745C105.537 17.5345 105.686 17.404 105.797 17.255C106.612 16.1788 106.98 16.2021 107.506 17.4087C108.213 19.0345 108.893 20.6743 109.586 22.3095C109.703 22.3095 109.814 22.3095 109.931 22.3095C110.075 21.8576 110.229 21.4057 110.368 20.9492C111.183 18.2519 111.956 15.5686 113.534 13.1508C114.595 11.5157 115.26 9.62896 116.108 7.8494C116.257 7.54194 116.382 7.2205 116.564 6.93167C117.253 5.82295 117.89 5.67387 118.607 6.7267C120.325 9.26093 122.014 11.8371 123.49 14.5204C126.19 19.4258 128.708 24.4244 131.343 29.3671C132.269 31.1001 133.302 32.7725 134.294 34.4729C134.424 34.6918 134.545 34.9294 134.727 35.1018C135.886 36.1872 136.621 37.5708 137.519 38.8472C140.21 42.6719 143.259 46.2123 147.965 47.7729C148.807 48.0524 149.896 48.2062 150.353 49.4733C147.788 49.2916 145.488 48.8491 143.585 47.2186C138.641 42.984 134.633 37.9574 131.343 32.3719C129.895 29.9122 128.75 27.2754 127.423 24.7412C126.516 23.0036 125.492 21.3265 124.584 19.5935C123.62 17.7534 122.731 15.8714 121.675 13.7238V15.6571C119.762 14.6881 118.984 13.0017 118.16 11.2688C117.914 12.5359 117.704 13.7611 118.468 14.8884C119.315 16.1323 120.194 17.3528 121.27 18.8854C120.097 19.1184 119.101 19.342 118.095 19.4724C118.007 19.4817 117.625 18.7224 117.737 18.55C118.333 17.6183 117.988 17.0546 117.299 16.3372C116.88 15.8993 116.824 15.0981 116.643 14.4505C116.508 13.9707 116.438 13.4722 116.34 12.9831C116.229 12.9738 116.122 12.9598 116.01 12.9505C115.191 16.1043 114.492 19.2954 113.515 22.398C112.523 25.5378 111.262 28.5938 110.033 31.906C110.205 26.3391 113.631 21.7411 113.827 16.4071C113.696 16.3326 113.562 16.258 113.431 16.1835C113.166 16.5795 112.78 16.9428 112.654 17.3761C111.728 20.6231 110.904 23.9027 109.945 27.1403C108.744 31.1933 107.427 35.1996 105.262 38.8891C103.819 41.3582 101.571 42.8629 99.3553 44.4514C99.2575 44.3536 99.1551 44.2511 99.0574 44.1533L99.0294 44.1393Z" fill="white"></path></g><defs><clipPath id="clip0_30_203"><rect width="188" height="53" fill="white"></rect></clipPath></defs></svg>

<svg width="188" height="53" fill="none" xmlns="http://www.w3.org/2000/svg"><g clip-path="url(#a)" fill="#fff"><path d="m36.242 31.915 19.145-5.217s-3.184-2.022-7.029-1.426c-.922.145-3.472.704-6.81 1.468 1.024-2.344 2.016-5.511 2.016-5.511s4.04-12.527 4.752-15.984c.712-3.452-8.001-2.017-11.25-1.62-3.25.395-9.105 3.241-9.11 3.241-1.191-.521-2.341-1.062-2.7-1.416-.79-.792-3.565-4.756-8.08-1.108h.396s2.22 4.597 4.436 4.914c2.22.317 4.277.159 3.011 2.618-1.266 2.46-3.258 8.088-3.528 6.504-.275-1.584-3.998-8.325-5.027-7.533-1.029.792-.95 5.711-.396 7.216.554 1.505-1.266 5.152-1.187 6.424.08 1.267-.791 5.548 2.062 4.519 2.854-1.03 4.515-3.965 7.29-8.404 2.774-4.44 2.14-6.741 4.119-8.404 1.294-1.086 2.244-2.171 2.644-2.93l.205.074s2.457-.475 2.378.396c-.079.871-1.582 2.935-3.803 3.727-2.22.792-.474 2.301.159 2.53.633.232.633 1.434.633 1.434s-2.3 1.663-3.645 2.38c-1.345.714.712 4.203 1.504 6.504.33.955 1.07.95 1.82.62V29.4a3899.297 3899.297 0 0 0-17.707 4.267l-.359-.596s-2.14-3.448-5.227-.298c-3.09 3.153-5.585 7.91-1.247 6.899 3.584-.834 19.22-4.798 24.54-6.15v7.696s-.238 2.735-2.02 2.917c-1.784.177-3.98-.536-4.162-.597-.037-.014-.163.052-.335.163.237-.354.414-.74.512-1.169.535-2.385 1.573-5.422-1.243-4.225 0 0-2.5 1.346-4.222 1.505-1.722.158-4.873.097-4.399 2.417.475 2.32 2.332 4.994 4.288 4.459 1.121-.308 2.615-.848 3.788-1.706-.116.27-.07.513.303.634 1.247.415 5.218 2.38 6.619 4.22 1.401 1.84 3.72 3.686 4.967 3.033 1.247-.652 2.671-.475 2.378-5.413-.186-3.102-.372-10.486-.489-15.536l.01-.005Zm2.746-20.977c.475-.652 1.07-4.519 1.07-4.519.08-.503 2.081-.298 2.617 0 .535.298-.121 3.63-.713 5.768-.595 2.142-2.02 1.96-3.207 1.663-1.187-.299-.237-2.26.238-2.917l-.005.005Zm-2.239 7.197c.712-.554 3.724 0 3.724 0s.237 3.648-3.09 2.618c-.54-.167-.792-.633-.792-.633s-.554-1.426.158-1.985Zm-.614 8.623s-1.07-1.667-3.538-1.845c.363-.782 1.108-2.366 1.303-2.734.126-.242.824-.35 1.327-.764-.28.918.177 2.273.177 2.273s1.499 2.195 2.807 3.825c-.67.154-1.355.317-2.053.48l-.023-1.235Z"/><path d="M51.109 37.762c-4.04-2.083-7.843-5.232-12.06-1.547 0 0 4.515 6.461 8.14 6.173 3.627-.285 7.965-2.548 3.925-4.626h-.005ZM144.744 23.134s3.09 8.851 3.09 11.381c0 2.53-.949 6.457-.949 6.457s1.661 5.352 3.328 5.115c1.666-.238 12.717-2.618 12.717-2.618s10.696-2.143 12.479-2.143c1.783 0 3.682.596 1.904 2.022-1.778 1.425-.95 1.784.712 3.33 1.662 1.547 3.091 1.906 4.394 1.664 1.303-.243 4.04-2.26 4.399-2.735.358-.475 1.187-20.721 1.187-20.721s-4.278-6.876-7.727-5.926c-3.449.95-.95 9.159-.95 9.159l.596 5.52-9.51.867V15.988s4.515-7.845.475-10.58c-4.04-2.734-11.171-6.605-10.575-2.59.595 4.016 2.141 32.205 2.141 32.205s-8.914 3.21-8.793 1.663c.121-1.547 1.545-9.038-.121-10.584-1.666-1.547-2.141-3.093-8.793-2.972l-.004.004Z"/><path fill-rule="evenodd" clip-rule="evenodd" d="M99.03 44.14c.712-.811 1.391-1.654 2.145-2.428 2.188-2.255 4.236-4.602 5.269-7.644.675-1.985 1.355-3.97 1.937-5.982.419-1.44.023-2.818-.768-4.044-.228-.349-.871-.806-1.103-.703-.578.252-1.294.703-1.485 1.244-.596 1.686-1.029 3.438-1.425 5.19-.498 2.203-.903 4.425-1.582 6.643-.028-.28-.056-.564-.103-.988-1.219 1.043-.842 3.06-2.732 3.848 1.131-3.802 2.937-7.137 3.156-10.915-2.746 6.186-3.952 13.044-7.964 18.662a28.452 28.452 0 0 0-.34-.126c.06-.27.098-.554.186-.815 2.328-6.564 4.645-13.137 7.01-19.692.61-1.695.871-3.568 2.532-4.78.522-.377.68-1.252 1.015-1.919-1.126-1.188-2.271-2.324-3.333-3.535-1.01-1.146-1.931-2.367-3.025-3.713-.038 1.192-.191 2.413.48 3.461.832 1.3 1.842 2.483 2.964 3.96-1.14.28-2.132.573-3.142.717-.144.019-.656-.848-.549-1.02.568-.904.228-1.402-.433-2.082-.451-.466-.53-1.3-.73-1.985-.136-.466-.187-.955-.275-1.435-.126-.01-.252-.018-.377-.032-.82 3.158-1.504 6.359-2.5 9.461-1.005 3.117-2.323 6.126-3.663 9.21.112-.834.102-1.7.349-2.488.838-2.697 1.815-5.348 2.63-8.05.447-1.481.66-3.032.982-4.551-.19-.08-.386-.163-.577-.242-.242.4-.587.768-.712 1.202-.987 3.41-1.876 6.852-2.9 10.248-1.336 4.426-2.663 8.907-5.698 12.527-1.336 1.589-3.077 2.837-4.631 4.244-.13-.116-.256-.238-.387-.354.415-.545.764-1.165 1.262-1.621 4.175-3.839 6.619-8.642 7.969-14.078.372-1.496.158-2.88-.666-4.17-.782-1.225-1.708-1.285-2.411-.009-.526.95-.852 2.045-1.103 3.117-.73 3.107-1.378 6.228-2.211 9.354l-.172-1.132c-1.071 1.006-.712 2.944-2.626 3.494 1.262-3.54 2.723-6.83 3.142-10.43-2.816 6.13-3.993 12.973-8.025 18.55l-.33-.14c.568-1.286 1.234-2.544 1.69-3.871 2.03-5.95 3.984-11.926 5.99-17.884.429-1.272.731-2.586 1.997-3.457.722-.498.978-1.342.033-2.143a36.8 36.8 0 0 1-3.207-3.112c-.442-.475-.68-1.141-.992-1.733-.223-.42-.414-.857-.8-1.225-.159 1.463-.391 2.832.856 4.072.87.861 1.396 2.073 2.216 3.335-1.006.252-2.03.657-3.077.722-.824.051-.782-.722-.414-1.206.526-.695.242-1.072-.228-1.636-.438-.526-.67-1.248-.894-1.914-.19-.578-.242-1.207-.354-1.808h-.34c-.828 3.187-1.54 6.41-2.527 9.546-.973 3.093-2.23 6.098-3.556 9.126.242-1.3.381-2.632.75-3.9.893-3.079 1.907-6.125 2.834-9.195.19-.63.181-1.319.265-1.98-.144-.07-.293-.135-.437-.205-.298.47-.722.903-.866 1.42-.894 3.168-1.662 6.373-2.598 9.527-1.261 4.267-2.471 8.604-5.143 12.247-1.327 1.808-3.123 3.266-4.71 4.878-.159-.135-.322-.266-.48-.4.377-.513.74-1.04 1.131-1.538 1.597-2.054 3.514-3.937 4.715-6.2 1.346-2.54 2.165-5.386 2.97-8.171.28-.974-.019-2.204-.335-3.229-.177-.578-1.117-1.463-1.383-1.36-.698.27-1.49.904-1.75 1.584-.544 1.425-.805 2.963-1.122 4.472-.484 2.297-.912 4.602-1.62 6.885-.013-.242-.023-.484-.032-.727-.07-.032-.14-.07-.21-.102-.563 1.104-1.126 2.213-1.684 3.317-.159-.065-.322-.135-.48-.2 1.033-3.364 2.067-6.732 3.105-10.096-.163-.05-.321-.102-.48-.153-2.634 6.07-3.621 12.815-7.508 18.406.107-.373.21-.75.326-1.123 2.286-7.086 4.552-14.176 6.898-21.243.303-.913 1.076-1.668 1.56-2.534.582-1.04 1.098-2.11 1.62-3.177.284-.578.488-1.188.777-1.761.39-.764.917-.82 1.28-.023.512 1.122.88 2.31 1.368 3.442.29.67.69 1.29 1.192 2.208.53-1.84.782-3.377 1.401-4.742 1.406-3.103 2.993-6.126 4.506-9.182.321-.648.6-1.328.987-1.933.703-1.11 1.243-1.184 2.071-.14.82 1.03 1.527 2.161 2.178 3.307 1.057 1.85 2.025 3.75 3.05 5.614.13.238.404.4.725.703.252-.521.406-.964.657-1.341.195-.294.512-.718.759-.713.27.01.628.405.772.713.666 1.43 1.262 2.893 1.913 4.328.13.284.373.517.666.917.451-1.49.75-2.823 1.257-4.071.689-1.691 1.508-3.327 2.318-4.966 1-2.031 2.062-4.035 3.077-6.061.917-1.83 1.694-2.013 2.806-.335 1.285 1.952 2.258 4.104 3.417 6.144.666 1.174 1.424 2.297 2.23 3.583.321-.34.47-.471.581-.62.815-1.076 1.183-1.053 1.709.154.707 1.626 1.387 3.265 2.08 4.9h.345c.144-.451.298-.903.437-1.36.815-2.697 1.588-5.38 3.166-7.798 1.061-1.635 1.726-3.522 2.574-5.302.149-.307.274-.628.456-.917.689-1.11 1.326-1.258 2.043-.205 1.718 2.534 3.407 5.11 4.883 7.793 2.7 4.906 5.218 9.904 7.853 14.847.926 1.733 1.959 3.405 2.951 5.106.13.219.251.456.433.629 1.159 1.085 1.894 2.469 2.792 3.745 2.691 3.825 5.74 7.365 10.446 8.926.842.28 1.931.433 2.388 1.7-2.565-.181-4.865-.624-6.768-2.254-4.944-4.235-8.952-9.262-12.242-14.847-1.448-2.46-2.593-5.097-3.92-7.63-.907-1.738-1.931-3.416-2.839-5.149-.964-1.84-1.853-3.722-2.909-5.87v1.934c-1.913-.969-2.691-2.655-3.515-4.388-.246 1.267-.456 2.492.308 3.62.847 1.243 1.726 2.464 2.802 3.996-1.173.233-2.169.457-3.175.587-.088.01-.47-.75-.358-.922.596-.932.251-1.495-.438-2.213-.419-.438-.475-1.239-.656-1.886-.135-.48-.205-.979-.303-1.468-.111-.01-.218-.023-.33-.033-.819 3.154-1.518 6.345-2.495 9.448-.992 3.14-2.253 6.196-3.482 9.508.172-5.567 3.598-10.165 3.794-15.499l-.396-.224c-.265.396-.651.76-.777 1.193-.926 3.247-1.75 6.527-2.709 9.764-1.201 4.053-2.518 8.06-4.683 11.75-1.443 2.468-3.691 3.973-5.907 5.561l-.298-.298-.028-.014Z"/></g><defs><clipPath id="a"><path fill="#fff" d="M0 0h188v53H0z"/></clipPath></defs></svg>
